icons/lines/battery-disable.svg

<svg xmlns="http://www.w3.org/2000/svg" width="24" height="24" viewBox="0 0 24 24" fill="none" stroke="currentColor" stroke-width="2" stroke-linecap="round" stroke-linejoin="round">
  <path d="M13 19c4 0 5-1 5-5v-4c0-3.39-.72-4.63-3.37-4.92" />
  <path d="M20.5 9.5C22 9.5 22 10 22 11v2c0 1 0 1.5-1.5 1.5" />
  <path d="m4 21.5 12-19" />
  <path d="M7 5c-4 0-5 1-5 5v4c0 3.4.72 4.63 3.39 4.92" />
</svg>

<svg xmlns="http://www.w3.org/2000/svg" width="24" height="24" viewBox="0 0 24 24" fill="none" stroke="currentColor" stroke-width="2" stroke-linecap="round" stroke-linejoin="round" >
  <path d="M20.5 9.5C22 9.5 22 10 22 11V13C22 14 22 14.5 20.5 14.5"/>
  <path d="M4 21.5L16 2.5"/>
  <path d="M7 5C3 5 2 6 2 10V14C2 17.4 2.72 18.63 5.39 18.92"/>
  <path d="M13 19C17 19 18 18 18 14V10C18 6.61002 17.28 5.37002 14.63 5.08002"/>
  </svg>
